img/bankIcons/alfa.svg

<svg width="54" height="54" viewBox="0 0 54 54" fill="none" xmlns="http://www.w3.org/2000/svg">
<circle cx="27" cy="27" r="27" fill="#E52713"/>
<path fill-rule="evenodd" clip-rule="evenodd" d="M26.9999 11C29.1213 11 29.7883 12.56 30.3451 14.1217C30.5816 14.7833 36.0932 30.2801 36.2581 30.7448C36.3039 30.8739 36.2741 31.0885 36.0779 31.1643C35.9857 31.2005 35.2963 31.4754 34.5788 31.7616C33.7794 32.0803 32.9451 32.4131 32.8621 32.4453C32.7033 32.5062 32.5251 32.4154 32.4665 32.2547C32.4318 32.1606 32.0106 30.9626 31.6404 29.9098C31.3787 29.1652 31.1424 28.4934 31.0866 28.3362H22.9218L22.863 28.5019C22.5851 29.2862 21.5834 32.1129 21.5334 32.2547C21.4775 32.4095 21.3057 32.5132 21.1384 32.4453C20.9714 32.3772 18.0943 31.2314 17.9209 31.1643C17.758 31.1 17.6852 30.908 17.7421 30.7448C17.8371 30.4717 19.0864 26.9587 20.4128 23.2292L20.4131 23.2282C21.9086 19.0231 23.5018 14.5431 23.6487 14.1217C24.1869 12.5843 24.8779 11 26.9999 11ZM17.3065 38.7284C17.1372 38.7284 17 38.8741 17 39.0539V42.6744C17 42.8553 17.1375 43 17.3065 43H36.6935C36.8635 43 37 42.8553 37 42.6744V39.0536C37 38.8738 36.8635 38.728 36.6935 38.728H17.3065V38.7284ZM24.2215 24.5738L26.9828 16.0608H27.018L29.7877 24.5738H24.2215Z" fill="white"/>
</svg>

<svg width="54" height="54" viewBox="0 0 54 54" fill="none" xmlns="http://www.w3.org/2000/svg"><circle cx="27" cy="27" r="27" fill="#E52713"/><path fill-rule="evenodd" clip-rule="evenodd" d="M27 11c2.121 0 2.788 1.56 3.345 3.122.237.661 5.748 16.158 5.913 16.623.046.129.016.343-.18.42-.092.036-.782.31-1.5.597l-1.716.683a.31.31 0 01-.395-.19c-.035-.094-.456-1.292-.827-2.345l-.553-1.574h-8.165l-.059.166-1.33 3.753c-.056.154-.227.258-.395.19a980.214 980.214 0 00-3.217-1.28c-.163-.065-.236-.257-.179-.42.095-.273 1.344-3.786 2.67-7.516h.001c1.496-4.206 3.089-8.686 3.236-9.107.538-1.538 1.229-3.122 3.35-3.122zm-9.694 27.728c-.169 0-.306.146-.306.326v3.62c0 .181.137.326.306.326h19.387c.17 0 .307-.145.307-.326v-3.62c0-.18-.136-.326-.306-.326H17.305zm6.915-14.154l2.762-8.513h.035l2.77 8.513H24.22z" fill="#fff"/></svg>587 20.4128 23.2292L20.4131 23.2282C21.9086 19.0231 23.5018 14.5431 23.6487 14.1217C24.1869 12.5843 24.8779 11 26.9999 11ZM17.3065 38.7284C17.1372 38.7284 17 38.8741 17 39.0539V42.6744C17 42.8553 17.1375 43 17.3065 43H36.6935C36.8635 43 37 42.8553 37 42.6744V39.0536C37 38.8738 36.8635 38.728 36.6935 38.728H17.3065V38.7284ZM24.2215 24.5738L26.9828 16.0608H27.018L29.7877 24.5738H24.2215Z" fill="white"/>
</svg>
